icons/goal-24.svg

<svg width="24" height="24" viewBox="0 0 24 24" fill="none" xmlns="http://www.w3.org/2000/svg">
<path fill-rule="evenodd" clip-rule="evenodd" d="M20.1723 6.74999C20.421 6.74999 20.6594 6.65122 20.8352 6.4754L22.8963 4.41439L20.1374 3.86261L19.5856 1.10373L17.5246 3.16474C17.3488 3.34056 17.25 3.57902 17.25 3.82766V5.68933L12.6852 10.2541C12.4729 10.1708 12.2418 10.125 12 10.125C10.9645 10.125 10.125 10.9645 10.125 12C10.125 13.0355 10.9645 13.875 12 13.875C13.0355 13.875 13.875 13.0355 13.875 12C13.875 11.7582 13.8292 11.527 13.7459 11.3148L18.3107 6.74999H20.1723Z" fill="black"/>
<path fill-rule="evenodd" clip-rule="evenodd" d="M2.625 12C2.625 6.82233 6.82233 2.625 12 2.625C12.8983 2.625 13.7659 2.75113 14.5866 2.98618C14.9848 3.10022 15.4001 2.86986 15.5141 2.47165C15.6282 2.07345 15.3978 1.65819 14.9996 1.54415C14.0459 1.27103 13.0394 1.125 12 1.125C5.9939 1.125 1.125 5.9939 1.125 12C1.125 18.0061 5.9939 22.875 12 22.875C18.0061 22.875 22.875 18.0061 22.875 12C22.875 10.9606 22.729 9.95408 22.4559 9.00041C22.3418 8.6022 21.9266 8.37184 21.5283 8.48588C21.1301 8.59992 20.8998 9.01518 21.0138 9.41339C21.2489 10.2341 21.375 11.1017 21.375 12C21.375 17.1777 17.1777 21.375 12 21.375C6.82233 21.375 2.625 17.1777 2.625 12Z" fill="black"/>
<path fill-rule="evenodd" clip-rule="evenodd" d="M7.125 12C7.125 9.30761 9.30761 7.125 12 7.125C12.1901 7.125 12.3774 7.13585 12.5613 7.15689C12.9728 7.20399 13.3446 6.90856 13.3917 6.49703C13.4388 6.0855 13.1434 5.71372 12.7318 5.66662C12.4914 5.63911 12.2472 5.625 12 5.625C8.47918 5.625 5.625 8.47918 5.625 12C5.625 15.5208 8.47918 18.375 12 18.375C15.5208 18.375 18.375 15.5208 18.375 12C18.375 11.7493 18.3605 11.5018 18.3322 11.2581C18.2845 10.8467 17.9122 10.5518 17.5008 10.5996C17.0893 10.6473 16.7945 11.0196 16.8422 11.431C16.8638 11.6174 16.875 11.8072 16.875 12C16.875 14.6924 14.6924 16.875 12 16.875C9.30761 16.875 7.125 14.6924 7.125 12Z" fill="black"/>
</svg>

<svg xmlns="http://www.w3.org/2000/svg" width="24" height="24" viewBox="0 0 24 24"><path fill-rule="evenodd" d="M20.172 6.75a.937.937 0 00.663-.275l2.061-2.06-2.759-.552-.551-2.76-2.061 2.062a.938.938 0 00-.275.663v1.861l-4.565 4.565a1.875 1.875 0 101.06 1.06l4.566-4.564h1.861z"/><path fill-rule="evenodd" d="M2.625 12A9.375 9.375 0 0112 2.625a9.38 9.38 0 012.587.361A.75.75 0 1015 1.544a10.887 10.887 0 00-3-.419C5.994 1.125 1.125 5.994 1.125 12S5.994 22.875 12 22.875 22.875 18.006 22.875 12c0-1.04-.146-2.046-.42-3a.75.75 0 00-1.441.413c.235.821.361 1.689.361 2.587a9.375 9.375 0 11-18.75 0z"/><path fill-rule="evenodd" d="M7.125 12a4.875 4.875 0 015.436-4.843.75.75 0 10.17-1.49 6.375 6.375 0 105.6 5.591.75.75 0 10-1.489.173A4.875 4.875 0 117.125 12z"/></svg>
